Numix-GalliumOS/16/places/default-folder-hdd.svg

<?xml version="1.0" encoding="UTF-8" standalone="no"?>
<svg
   xmlns:dc="http://purl.org/dc/elements/1.1/"
   xmlns:cc="http://creativecommons.org/ns#"
   xmlns:rdf="http://www.w3.org/1999/02/22-rdf-syntax-ns#"
   xmlns:svg="http://www.w3.org/2000/svg"
   xmlns="http://www.w3.org/2000/svg"
   xmlns:sodipodi="http://sodipodi.sourceforge.net/DTD/sodipodi-0.dtd"
   xmlns:inkscape="http://www.inkscape.org/namespaces/inkscape"
   enable-background="new 0 0 32 32"
   height="16"
   id="Layer_1"
   version="1.1"
   viewBox="0 0 16 16"
   width="16"
   xml:space="preserve"
   inkscape:version="0.91 r"
   sodipodi:docname="default-folder-hdd.svg"><metadata
     id="metadata12"><rdf:RDF><cc:Work
         rdf:about=""><dc:format>image/svg+xml</dc:format><dc:type
           rdf:resource="http://purl.org/dc/dcmitype/StillImage" /><dc:title /></cc:Work></rdf:RDF></metadata><defs
     id="defs10" /><sodipodi:namedview
     pagecolor="#ffffff"
     bordercolor="#666666"
     borderopacity="1"
     objecttolerance="10"
     gridtolerance="10"
     guidetolerance="10"
     inkscape:pageopacity="0"
     inkscape:pageshadow="2"
     inkscape:window-width="1280"
     inkscape:window-height="998"
     id="namedview8"
     showgrid="true"
     inkscape:zoom="19.640263"
     inkscape:cx="2.2840208"
     inkscape:cy="1.8499849"
     inkscape:window-x="0"
     inkscape:window-y="0"
     inkscape:window-maximized="1"
     inkscape:current-layer="Layer_1"><inkscape:grid
       type="xygrid"
       id="grid2991"
       empspacing="5"
       visible="true"
       enabled="true"
       snapvisiblegridlinesonly="true" /></sodipodi:namedview><path
     style="fill:#c4905e;fill-opacity:1;stroke:none"
     d="M 3,0 C 1.892,0 1,0.892 1,2 l 0,12 c 0,1.108 0.892,2 2,2 l 10,0 c 1.108,0 2,-0.892 2,-2 L 15,2 C 15,0.892 14.108,0 13,0 z M 4,2 C 4.5522847,2 5,2.4477153 5,3 5,3.5522847 4.5522847,4 4,4 3.4477153,4 3,3.5522847 3,3 3,2.4477153 3.4477153,2 4,2 z m 8,0 c 0.552285,0 1,0.447715 1,1 0,0.552285 -0.447715,1 -1,1 C 11.447715,4 11,3.552285 11,3 11,2.447715 11.447715,2 12,2 z M 8,3 C 9.6568542,3 11,4.3431458 11,6 11,7.6568542 9.6568542,9 8,9 6.3431458,9 5,7.6568542 5,6 5,4.3431458 6.3431458,3 8,3 z M 4,8 C 4.5522847,8 5,8.4477153 5,9 5,9.5522847 4.5522847,10 4,10 3.4477153,10 3,9.5522847 3,9 3,8.4477153 3.4477153,8 4,8 z m 8,0 c 0.552285,0 1,0.4477153 1,1 0,0.5522847 -0.447715,1 -1,1 -0.552285,0 -1,-0.4477153 -1,-1 0,-0.5522847 0.447715,-1 1,-1 z m -8.5,5 9,0 c 0.277,0 0.5,0.223 0.5,0.5 0,0.277 -0.223,0.5 -0.5,0.5 l -9,0 C 3.223,14 3,13.777 3,13.5 3,13.223 3.223,13 3.5,13 z"
     id="rect2984"
     inkscape:connector-curvature="0"
     sodipodi:nodetypes="sssssssssssssssssssssssssssssssssssssssss" /><path
     transform="matrix(0.51179914,0,0,0.41337621,10.830688,3.5398266)"
     d="m -3.5769656,5.9514151 a 1.9538915,2.4191039 0 1 1 -3.907783,0 1.9538915,2.4191039 0 1 1 3.907783,0 z"
     sodipodi:ry="2.4191039"
     sodipodi:rx="1.9538915"
     sodipodi:cy="5.9514151"
     sodipodi:cx="-5.5308571"
     id="path3007"
     style="fill:#c4905e;fill-opacity:1;stroke:none"
     sodipodi:type="arc" /></svg>

<svg xmlns="http://www.w3.org/2000/svg" viewBox="0 0 16 16" style="enable-background:new 0 0 32 32">
 <path d="m 3 0 c -1.108 0 -2 0.892 -2 2 l 0 12 c 0 1.108 0.892 2 2 2 l 10 0 c 1.108 0 2 -0.892 2 -2 l 0 -12 c 0 -1.108 -0.892 -2 -2 -2 z m 1 2 c 0.552 0 1 0.448 1 1 0 0.552 -0.448 1 -1 1 -0.552 0 -1 -0.448 -1 -1 0 -0.552 0.448 -1 1 -1 z m 8 0 c 0.552 0 1 0.448 1 1 0 0.552 -0.448 1 -1 1 c -0.552 0 -1 -0.448 -1 -1 0 -0.552 0.448 -1 1 -1 z m -4 1 c 1.657 0 3 1.343 3 3 0 1.657 -1.343 3 -3 3 -1.657 0 -3 -1.343 -3 -3 0 -1.657 1.343 -3 3 -3 z m -4 5 c 0.552 0 1 0.448 1 1 0 0.552 -0.448 1 -1 1 -0.552 0 -1 -0.448 -1 -1 0 -0.552 0.448 -1 1 -1 z m 8 0 c 0.552 0 1 0.448 1 1 0 0.552 -0.448 1 -1 1 -0.552 0 -1 -0.448 -1 -1 0 -0.552 0.448 -1 1 -1 z m -8.5 5 9 0 c 0.277 0 0.5 0.223 0.5 0.5 0 0.277 -0.223 0.5 -0.5 0.5 l -9 0 c -0.277 0 -0.5 -0.223 -0.5 -0.5 0 -0.277 0.223 -0.5 0.5 -0.5 z" style="fill:#ff9800;fill-opacity:1;stroke:none"/>
 <path transform="matrix(0.51179914,0,0,0.41337621,10.830688,3.5398266)" d="m -3.577 5.951 a 1.954 2.419 0 1 1 -3.908 0 1.954 2.419 0 1 1 3.908 0 z" style="fill:#ff9800;fill-opacity:1;stroke:none"/>
</svg>
